X:10
T:The First of December
%%VWML:RutherfordSelect-4785-p10-0
F:http://www.vwml.org/record/RutherfordSelect/4785/p10
Z:Transcribed by David Jacobs February 2016
S:12 Selected Country Dances 1772, John Rutherford
L:1/8
M:C|
K:D
V:1     clef=treble
V:2     clef=bass
V:1 
[dAD]daf gfed|efde dcBA|Bdce dfeg|fdecd2D2:|
efef efgf|fgfg fgaf|efef efge|fgaf{g2}e4|[dAD]gaf gfed|efge dcBA|Bdce dfeg|fdecd2D2:|]
V:2
D,2D,2A,2B,2|G,2G,2A,2F,2|G,2E,2F,2G,2|A,2A,,2D,4:|
A,4A,4|D,4D,4|A,4A,4|D,4A,4|D,2D,2A,2B,2|G,2G,2A,2F,2|G,2E,2F,2G,2|A,2A,,2D,4:|]
W:Set across and turn the Second Lady .|
W:The Lady do the same to the 2nd Man :|
W:Cross over one Cu.Lead up & cast off .|:
W:Hands round ofur at bottom right and left at top :||:

